public/images/line-icons/icon-settings.svg

<svg xmlns="http://www.w3.org/2000/svg" viewBox="0 0 14.2 15"><style>.st0{fill:#8d8d8d;}</style><path class="st0" d="M7.9 15H6.3c-.9 0-1.6-.7-1.6-1.6v-.9c-.2-.1-.4-.2-.5-.3l-.7.4c-.8.5-1.8.2-2.3-.6l-.8-1.4c-.6-.7-.4-1.7.4-2.2l.8-.4v-.5-.4l-.8-.4c-.4-.2-.6-.6-.8-1-.1-.4 0-.9.2-1.3L1.1 3c.2-.4.6-.6 1-.8.4-.1.9-.1 1.2.2l.7.5c.2-.1.4-.3.6-.4v-.9C4.7.7 5.4 0 6.3 0h1.6c.9 0 1.6.7 1.6 1.6v.9c.2.1.4.2.5.3l.8-.5c.4-.2.8-.3 1.2-.2.4.1.8.4 1 .7l1 1.5c.5.8.2 1.8-.6 2.3l-.7.4v.9l.7.4c.8.5 1 1.5.6 2.2l-.8 1.5c-.2.4-.6.6-1 .8-.4.1-.9.1-1.2-.2l-.8-.4-.6.3v.9c0 .9-.8 1.6-1.7 1.6zm-3.7-4.4l.3.3c.3.3.7.4 1 .6l.4.2v1.7c0 .2.2.3.4.3h1.6c.2 0 .4-.2.4-.3v-1.7l.4-.2c.3-.2.9-.5 1.1-.6l.3-.3 1.5.9c.1.1.2 0 .3 0 .1 0 .2-.1.2-.2l.8-1.4c.1-.2 0-.4-.1-.5l-1.5-.9.1-.4c0-.2.1-.4.1-.6 0-.2 0-.5-.1-.7l-.1-.4 1.5-.9c.1-.1.2-.3.1-.5L12 3.6c-.1-.1-.2-.1-.2-.2h-.3l-1.5.9-.3-.2c-.2-.2-.7-.5-1-.6l-.4-.1V1.6c0-.2-.2-.3-.4-.3H6.3c-.2 0-.4.2-.4.3v1.7l-.4.2c-.3.2-.7.4-1 .6l-.4.3-1.5-.9c-.1-.1-.2 0-.3 0-.1 0-.2.1-.2.2l-.8 1.4c-.1.1 0 .2 0 .3 0 .1.1.2.2.2l1.5.8-.1.5c0 .2-.1.4-.1.6 0 .2 0 .5.1.7l.1.4-1.5.9c-.2.1-.2.3-.1.5l.8 1.4c.1.2.3.2.5.1l1.5-.9zm2.9-.4c-1.5 0-2.7-1.2-2.7-2.7s1.2-2.7 2.7-2.7c1.5 0 2.7 1.2 2.7 2.7s-1.2 2.7-2.7 2.7zm0-4.1c-.8 0-1.4.6-1.4 1.4s.6 1.4 1.4 1.4c.8 0 1.4-.6 1.4-1.4s-.6-1.4-1.4-1.4z" id="settingscog"/></svg>

<?xml version="1.0" encoding="utf-8"?>
<!-- Generator: Adobe Illustrator 19.1.0, SVG Export Plug-In . SVG Version: 6.00 Build 0)  -->
<svg version="1.1" id="Layer_1" xmlns="http://www.w3.org/2000/svg" xmlns:xlink="http://www.w3.org/1999/xlink" x="0px" y="0px"
	 viewBox="0 0 14.2 15" style="enable-background:new 0 0 14.2 15;" xml:space="preserve">
<style type="text/css">
	.st0{fill:#949899;}
</style>
<g id="settingscog">
	<path class="st0" d="M7.9,15H6.3c-0.9,0-1.6-0.7-1.6-1.6v-0.9c-0.2-0.1-0.4-0.2-0.5-0.3l-0.7,0.4c-0.8,0.5-1.8,0.2-2.3-0.6
		l-0.8-1.4C-0.2,9.9,0,8.9,0.8,8.4L1.6,8c0-0.1,0-0.3,0-0.5c0-0.1,0-0.3,0-0.4L0.8,6.7c-0.4-0.2-0.6-0.6-0.8-1
		C-0.1,5.3,0,4.8,0.2,4.4L1.1,3c0.2-0.4,0.6-0.6,1-0.8c0.4-0.1,0.9-0.1,1.2,0.2L4,2.9c0.2-0.1,0.4-0.3,0.6-0.4V1.6
		C4.7,0.7,5.4,0,6.3,0h1.6c0.9,0,1.6,0.7,1.6,1.6v0.9c0.2,0.1,0.4,0.2,0.5,0.3l0.8-0.5c0.4-0.2,0.8-0.3,1.2-0.2
		c0.4,0.1,0.8,0.4,1,0.7L14,4.3c0.5,0.8,0.2,1.8-0.6,2.3L12.7,7c0,0.1,0,0.3,0,0.5c0,0.1,0,0.3,0,0.4l0.7,0.4c0.8,0.5,1,1.5,0.6,2.2
		L13.2,12c-0.2,0.4-0.6,0.6-1,0.8c-0.4,0.1-0.9,0.1-1.2-0.2l-0.8-0.4c-0.2,0.1-0.4,0.2-0.6,0.3v0.9C9.6,14.3,8.8,15,7.9,15z
		 M4.2,10.6l0.3,0.3c0.3,0.3,0.7,0.4,1,0.6l0.4,0.2v1.7c0,0.2,0.2,0.3,0.4,0.3h1.6c0.2,0,0.4-0.2,0.4-0.3v-1.7l0.4-0.2
		c0.3-0.2,0.9-0.5,1.1-0.6l0.3-0.3l1.5,0.9c0.1,0.1,0.2,0,0.3,0c0.1,0,0.2-0.1,0.2-0.2l0.8-1.4c0.1-0.2,0-0.4-0.1-0.5l-1.5-0.9
		l0.1-0.4c0-0.2,0.1-0.4,0.1-0.6c0-0.2,0-0.5-0.1-0.7l-0.1-0.4l1.5-0.9C12.9,5.4,13,5.2,12.9,5L12,3.6c-0.1-0.1-0.2-0.1-0.2-0.2
		c-0.1,0-0.2,0-0.3,0l-1.5,0.9L9.7,4.1C9.5,3.9,9,3.6,8.7,3.5L8.3,3.4V1.6c0-0.2-0.2-0.3-0.4-0.3H6.3c-0.2,0-0.4,0.2-0.4,0.3v1.7
		L5.5,3.5C5.2,3.7,4.8,3.9,4.5,4.1L4.1,4.4L2.6,3.5c-0.1-0.1-0.2,0-0.3,0c-0.1,0-0.2,0.1-0.2,0.2L1.3,5.1c-0.1,0.1,0,0.2,0,0.3
		c0,0.1,0.1,0.2,0.2,0.2L3,6.4L2.9,6.9c0,0.2-0.1,0.4-0.1,0.6c0,0.2,0,0.5,0.1,0.7L3,8.6L1.5,9.5C1.3,9.6,1.3,9.8,1.4,10l0.8,1.4
		c0.1,0.2,0.3,0.2,0.5,0.1L4.2,10.6z M7.1,10.2c-1.5,0-2.7-1.2-2.7-2.7s1.2-2.7,2.7-2.7c1.5,0,2.7,1.2,2.7,2.7S8.6,10.2,7.1,10.2z
		 M7.1,6.1c-0.8,0-1.4,0.6-1.4,1.4s0.6,1.4,1.4,1.4c0.8,0,1.4-0.6,1.4-1.4S7.9,6.1,7.1,6.1z"/>
</g>
</svg>
